svg/abjad_hebrew.svg

<svg xmlns="http://www.w3.org/2000/svg" viewBox="0 0 24 24"><path d="M3.9 4 9 10.03a3.44 3.44 0 0 0-3 2.56L4 20h2.07l1.85-6.89c.17-.65.77-1.11 1.44-1.11h1.33l6.78 8h2.63L15 13.97a3.44 3.44 0 0 0 3-2.56L20 4h-2.07l-1.85 6.89c-.17.65-.77 1.11-1.44 1.11h-1.33L6.53 4Z"/></svg>

<?xml version="1.0" encoding="UTF-8"?><!DOCTYPE svg PUBLIC "-//W3C//DTD SVG 1.1//EN" "http://www.w3.org/Graphics/SVG/1.1/DTD/svg11.dtd"><svg xmlns="http://www.w3.org/2000/svg" xmlns:xlink="http://www.w3.org/1999/xlink" version="1.1" id="mdi-abjad-hebrew" width="24" height="24" viewBox="0 0 24 24"><path d="M3.9 4L9 10.03C7.58 10.17 6.36 11.18 6 12.59L4 20H6.07L7.92 13.11C8.09 12.46 8.69 12 9.36 12H10.69L17.47 20H20.1L15 13.97C16.42 13.83 17.64 12.82 18 11.41L20 4H17.93L16.08 10.89C15.91 11.54 15.31 12 14.64 12H13.31L6.53 4Z" /></svg>
